X: 4
T: The Culfadda
R: reel
M: 4/4
L: 1/8
K: Gmaj
A|BedB AcBA|GBAG EFGE|D~B3 DEGA|BGdB A2GA|BedB AcBA|GBAG EFGE|D~B3 DEGA|(3BAG AF ~G3:|B|~d3B ~c3A|GABG ABGE|D~G3 D~G3|cBAG EGAB|~c3e d~B3|edef gdBG|DG~G2 DGBc|dBAc B~G3:|


Tune 1523	Setting 24903

